; generated by Slic3r 0.9.10b on 2014-04-18 at 13:19:52

; layer_height = 0.35
; perimeters = 3
; top_solid_layers = 3
; bottom_solid_layers = 3
; fill_density = 0.4
; perimeter_speed = 30
; infill_speed = 60
; travel_speed = 130
; nozzle_diameter = 0.35
; filament_diameter = 3
; extrusion_multiplier = 1
; perimeters extrusion width = 0.37mm
; infill extrusion width = 0.37mm
; solid infill extrusion width = 0.37mm
; top infill extrusion width = 0.37mm
; first layer extrusion width = 0.60mm

G21 ; set units to millimeters
M107
M104 S200 ; set temperature
G28 ; home all axes
G1 Z5 F5000 ; lift nozzle
M109 S200 ; wait for temperature to be reached
G90 ; use absolute coordinates
G92 E0
M82 ; use absolute distances for extrusion
G1 F1800.000 E-1.00000
G92 E0
G1 Z0.300 F7800.000
G1 X139.564 Y7.914
G1 F1800.000 E1.00000
G1 X140.214 Y7.344 F540.000 E1.02005
G1 X141.454 Y6.394 E1.05627
G1 X142.164 Y5.924 E1.07601
G1 X142.934 Y5.544 E1.09592
G1 X144.384 Y4.944 E1.13231
G1 X145.034 Y4.714 E1.14830
G1 X145.824 Y4.534 E1.16708
G1 X147.624 Y4.294 E1.20919
G1 X148.444 Y4.244 E1.22824
G1 X149.274 Y4.304 E1.24754
G1 X150.824 Y4.504 E1.28378
G1 X151.674 Y4.664 E1.30383
G1 X152.484 Y4.944 E1.32370
G1 X153.934 Y5.544 E1.36009
G1 X154.704 Y5.924 E1.38000
G1 X155.414 Y6.394 E1.39975
G1 X156.654 Y7.344 E1.43597
G1 X157.304 Y7.914 E1.45601
G1 X194.074 Y44.684 E2.66179
G1 X194.644 Y45.334 E2.68184
G1 X195.594 Y46.574 E2.71806
G1 X196.064 Y47.284 E2.73780
G1 X196.444 Y48.054 E2.75772
G1 X197.044 Y49.504 E2.79410
G1 X197.314 Y50.314 E2.81390
G1 X197.484 Y51.144 E2.83355
G1 X197.674 Y52.584 E2.86723
G1 X197.744 Y53.404 E2.88631
G1 X197.694 Y54.424 E2.90999
G1 X197.484 Y55.984 E2.94649
G1 X197.314 Y56.824 E2.96636
G1 X197.034 Y57.634 E2.98623
G1 X196.434 Y59.074 E3.02241
G1 X196.064 Y59.824 E3.04180
G1 X195.604 Y60.514 E3.06103
G1 X194.654 Y61.764 E3.09743
G1 X194.074 Y62.434 E3.11798
G1 X60.434 Y196.074 E7.50037
G1 X59.764 Y196.654 E7.52092
G1 X58.514 Y197.604 E7.55732
G1 X57.824 Y198.064 E7.57655
G1 X57.074 Y198.434 E7.59595
G1 X55.634 Y199.034 E7.63212
G1 X54.824 Y199.314 E7.65199
G1 X53.984 Y199.484 E7.67186
G1 X52.424 Y199.694 E7.70836
G1 X51.554 Y199.754 E7.72858
G1 X50.674 Y199.694 E7.74904
G1 X49.124 Y199.484 E7.78531
G1 X48.294 Y199.314 E7.80495
G1 X47.504 Y199.044 E7.82431
G1 X46.054 Y198.444 E7.86070
G1 X45.284 Y198.064 E7.88061
G1 X44.574 Y197.594 E7.90035
G1 X43.334 Y196.644 E7.93657
G1 X42.684 Y196.074 E7.95662
G1 X5.914 Y159.304 E9.16240
G1 X5.344 Y158.654 E9.18245
G1 X4.394 Y157.414 E9.21867
G1 X3.924 Y156.704 E9.23841
G1 X3.544 Y155.934 E9.25832
G1 X2.944 Y154.484 E9.29471
G1 X2.664 Y153.674 E9.31458
G1 X2.504 Y152.824 E9.33464
G1 X2.304 Y151.274 E9.37088
G1 X2.244 Y150.434 E9.39040
G1 X2.304 Y149.594 E9.40993
G1 X2.504 Y148.044 E9.44617
G1 X2.664 Y147.194 E9.46622
G1 X2.944 Y146.384 E9.48610
G1 X3.544 Y144.934 E9.52248
G1 X3.924 Y144.164 E9.54240
G1 X4.394 Y143.454 E9.56214
G1 X5.344 Y142.214 E9.59836
G1 X5.914 Y141.564 E9.61841
G1 X139.506 Y7.972 E13.99922
G1 F1800.000 E12.99922
G92 E0
G1 X143.354 Y28.716 F7800.000
G1 F1800.000 E1.00000
G1 X143.549 Y28.690 F540.000 E1.00455
G1 X144.018 Y28.676 E1.01542
G1 X144.212 Y28.701 E1.01998
G1 X144.670 Y28.804 E1.03085
G1 X145.269 Y29.092 E1.04628
G1 X145.777 Y29.522 E1.06170
G1 X145.897 Y29.678 E1.06626
G1 X146.160 Y30.066 E1.07714
G1 X146.395 Y30.689 E1.09258
G1 X146.464 Y31.351 E1.10801
G1 X146.439 Y31.546 E1.11258
G1 X146.365 Y32.010 E1.12346
G1 X146.104 Y32.622 E1.13891
G1 X145.698 Y33.147 E1.15428
G1 X145.330 Y33.432 E1.16508
G1 X145.174 Y33.552 E1.16965
G1 X144.561 Y33.814 E1.18510
G1 X143.902 Y33.913 E1.20055
G1 X143.435 Y33.869 E1.21143
G1 X143.240 Y33.843 E1.21599
G1 X142.617 Y33.609 E1.23143
G1 X142.073 Y33.226 E1.24685
G1 X141.763 Y32.874 E1.25773
G1 X141.643 Y32.718 E1.26228
G1 X141.355 Y32.119 E1.27771
G1 X141.227 Y31.466 E1.29312
G1 X141.242 Y30.998 E1.30400
G1 X141.267 Y30.803 E1.30855
G1 X141.398 Y30.353 E1.31942
G1 X141.473 Y30.171 E1.32398
G1 X141.712 Y29.768 E1.33485
G1 X141.832 Y29.612 E1.33940
G1 X142.163 Y29.280 E1.35027
G1 X142.319 Y29.161 E1.35483
G1 X142.722 Y28.922 E1.36570
G1 X142.904 Y28.847 E1.37025
G1 X143.275 Y28.739 E1.37922
G1 X143.467 Y29.252 F7800.000
G1 X143.990 Y29.223 F540.000 E1.39138
G1 X144.117 Y29.240 E1.39434
G1 X144.505 Y29.327 E1.40356
G1 X144.977 Y29.556 E1.41572
G1 X145.376 Y29.896 E1.42789
G1 X145.454 Y29.998 E1.43085
G1 X145.677 Y30.326 E1.44007
G1 X145.861 Y30.818 E1.45225
G1 X145.915 Y31.341 E1.46443
G1 X145.898 Y31.468 E1.46739
G1 X145.836 Y31.860 E1.47661
G1 X145.629 Y32.343 E1.48879
G1 X145.309 Y32.757 E1.50093
G1 X144.996 Y33.000 E1.51010
G1 X144.895 Y33.078 E1.51307
G1 X144.412 Y33.284 E1.52525
G1 X143.892 Y33.363 E1.53744
G1 X143.496 Y33.326 E1.54666
G1 X143.370 Y33.309 E1.54962
G1 X142.878 Y33.126 E1.56179
G1 X142.448 Y32.825 E1.57397
G1 X142.185 Y32.527 E1.58318
G1 X142.107 Y32.425 E1.58614
G1 X141.878 Y31.953 E1.59831
G1 X141.775 Y31.439 E1.61047
G1 X141.787 Y31.042 E1.61968
G1 X141.804 Y30.915 E1.62264
G1 X141.963 Y30.416 E1.63480
G1 X142.243 Y29.973 E1.64695
G1 X142.524 Y29.692 E1.65617
G1 X142.967 Y29.412 E1.66832
G1 X143.388 Y29.275 E1.67858
G1 X143.579 Y29.789 F7800.000
G1 X144.021 Y29.778 F540.000 E1.68883
G1 X144.339 Y29.849 E1.69638
G1 X144.684 Y30.020 E1.70530
G1 X145.011 Y30.318 E1.71555
G1 X145.194 Y30.587 E1.72310
G1 X145.327 Y30.948 E1.73202
G1 X145.357 Y31.389 E1.74228
G1 X145.306 Y31.711 E1.74983
G1 X145.154 Y32.064 E1.75875
G1 X144.919 Y32.368 E1.76765
G1 X144.662 Y32.567 E1.77519
G1 X144.616 Y32.603 E1.77656
G1 X144.262 Y32.755 E1.78548
G1 X143.882 Y32.814 E1.79440
G1 X143.558 Y32.783 E1.80195
G1 X143.138 Y32.642 E1.81220
G1 X142.822 Y32.423 E1.82112
G1 X142.607 Y32.179 E1.82867
G1 X142.401 Y31.788 E1.83893
G1 X142.322 Y31.412 E1.84784
G1 X142.332 Y31.086 E1.85539
G1 X142.453 Y30.661 E1.86565
G1 X142.655 Y30.334 E1.87455
G1 X142.885 Y30.104 E1.88211
G1 X143.212 Y29.902 E1.89101
G1 X143.501 Y29.811 E1.89802
G1 X143.843 Y30.144 F7800.000
G1 F1800.000 E0.89802
G92 E0
G1 X144.194 Y36.075 F7800.000
G1 F1800.000 E1.00000
G1 X163.803 Y55.685 F540.000 E1.64304
G1 X111.667 Y107.821 E3.35271
G1 X92.058 Y88.211 E3.99575
G1 X144.136 Y36.133 E5.70353
G1 X144.194 Y36.848 F7800.000
G1 X163.031 Y55.685 F540.000 E6.32123
G1 X111.667 Y107.048 E8.00557
G1 X92.831 Y88.211 E8.62327
G1 X144.136 Y36.906 E10.30571
G1 X144.194 Y37.621 F7800.000
G1 X162.258 Y55.685 F378.000 E10.89807
G1 X111.667 Y106.275 E12.55707
G1 X93.603 Y88.211 E13.14944
G1 X144.136 Y37.678 E14.80654
G1 X144.336 Y38.148 F7800.000
G1 X165.754 Y53.809
G1 X165.873 Y53.653 F540.000 E14.81109
G1 X166.205 Y53.322 E14.82197
G1 X166.361 Y53.202 E14.82652
G1 X166.764 Y52.964 E14.83739
G1 X166.945 Y52.889 E14.84194
G1 X167.396 Y52.758 E14.85282
G1 X167.590 Y52.732 E14.85737
G1 X168.059 Y52.717 E14.86824
G1 X168.254 Y52.743 E14.87280
G1 X168.712 Y52.845 E14.88367
G1 X169.311 Y53.133 E14.89909
G1 X169.819 Y53.563 E14.91452
G1 X169.938 Y53.719 E14.91907
G1 X170.202 Y54.107 E14.92995
G1 X170.436 Y54.730 E14.94539
G1 X170.506 Y55.393 E14.96083
G1 X170.480 Y55.588 E14.96539
G1 X170.407 Y56.051 E14.97627
G1 X170.145 Y56.664 E14.99172
G1 X169.740 Y57.188 E15.00710
G1 X169.372 Y57.474 E15.01790
G1 X169.215 Y57.594 E15.02247
G1 X168.603 Y57.856 E15.03792
G1 X167.944 Y57.955 E15.05337
G1 X167.476 Y57.911 E15.06425
G1 X167.281 Y57.885 E15.06881
G1 X166.658 Y57.651 E15.08424
G1 X166.115 Y57.268 E15.09967
G1 X165.804 Y56.915 E15.11055
G1 X165.685 Y56.760 E15.11510
G1 X165.397 Y56.161 E15.13052
G1 X165.269 Y55.508 E15.14594
G1 X165.283 Y55.039 E15.15682
G1 X165.309 Y54.844 E15.16137
G1 X165.440 Y54.394 E15.17223
G1 X165.515 Y54.213 E15.17679
G1 X165.712 Y53.880 E15.18576
G1 X166.207 Y54.116 F7800.000
G1 X166.285 Y54.014 F540.000 E15.18872
G1 X166.566 Y53.733 E15.19794
G1 X166.667 Y53.656 E15.20089
G1 X167.009 Y53.454 E15.21010
G1 X167.508 Y53.294 E15.22226
G1 X168.032 Y53.265 E15.23442
G1 X168.158 Y53.282 E15.23738
G1 X168.546 Y53.368 E15.24659
G1 X169.018 Y53.597 E15.25876
G1 X169.418 Y53.938 E15.27093
G1 X169.495 Y54.039 E15.27389
G1 X169.719 Y54.368 E15.28311
G1 X169.902 Y54.860 E15.29529
G1 X169.956 Y55.382 E15.30746
G1 X169.940 Y55.509 E15.31043
G1 X169.877 Y55.902 E15.31964
G1 X169.671 Y56.385 E15.33183
G1 X169.350 Y56.799 E15.34397
G1 X169.038 Y57.041 E15.35314
G1 X168.936 Y57.119 E15.35610
G1 X168.453 Y57.326 E15.36829
G1 X167.934 Y57.405 E15.38048
G1 X167.538 Y57.368 E15.38969
G1 X167.411 Y57.351 E15.39266
G1 X166.919 Y57.167 E15.40483
G1 X166.489 Y56.866 E15.41700
G1 X166.226 Y56.568 E15.42622
G1 X166.149 Y56.467 E15.42918
G1 X165.920 Y55.995 E15.44134
G1 X165.816 Y55.481 E15.45351
G1 X165.845 Y54.957 E15.46567
G1 X166.005 Y54.458 E15.47782
G1 X166.165 Y54.186 E15.48514
G1 X166.661 Y54.422 F7800.000
G1 X166.973 Y54.109 F540.000 E15.49539
G1 X167.254 Y53.944 E15.50294
G1 X167.621 Y53.830 E15.51185
G1 X168.063 Y53.820 E15.52211
G1 X168.381 Y53.891 E15.52966
G1 X168.725 Y54.061 E15.53857
G1 X169.052 Y54.359 E15.54883
G1 X169.235 Y54.629 E15.55638
G1 X169.368 Y54.990 E15.56530
G1 X169.399 Y55.431 E15.57555
G1 X169.348 Y55.752 E15.58310
G1 X169.196 Y56.106 E15.59202
G1 X168.961 Y56.410 E15.60093
G1 X168.704 Y56.609 E15.60847
G1 X168.657 Y56.645 E15.60983
G1 X168.304 Y56.797 E15.61875
G1 X167.924 Y56.855 E15.62767
G1 X167.599 Y56.825 E15.63523
G1 X167.180 Y56.684 E15.64548
G1 X166.864 Y56.465 E15.65439
G1 X166.649 Y56.221 E15.66195
G1 X166.442 Y55.830 E15.67220
G1 X166.364 Y55.453 E15.68111
G1 X166.382 Y55.070 E15.69003
G1 X166.472 Y54.757 E15.69757
G1 X166.619 Y54.493 E15.70458
G1 X167.097 Y54.497 F7800.000
G1 F1800.000 E14.70458
G92 E0
G1 X113.250 Y110.132 F7800.000
G1 F1800.000 E1.00000
G1 X113.633 Y110.676 F540.000 E1.01543
G1 X113.709 Y110.857 E1.01999
G1 X113.868 Y111.299 E1.03087
G1 X113.937 Y111.961 E1.04631
G1 X113.838 Y112.620 E1.06175
G1 X113.763 Y112.802 E1.06632
G1 X113.577 Y113.232 E1.07720
G1 X113.171 Y113.757 E1.09258
G1 X112.647 Y114.162 E1.10795
G1 X112.216 Y114.349 E1.11884
G1 X112.034 Y114.424 E1.12340
G1 X111.375 Y114.523 E1.13884
G1 X110.713 Y114.453 E1.15429
G1 X110.271 Y114.294 E1.16517
G1 X110.090 Y114.219 E1.16972
G1 X109.546 Y113.836 E1.18515
G1 X109.116 Y113.328 E1.20057
G1 X108.903 Y112.910 E1.21145
G1 X108.828 Y112.729 E1.21601
G1 X108.700 Y112.077 E1.23142
G1 X108.715 Y111.608 E1.24229
G1 X108.740 Y111.413 E1.24685
G1 X108.871 Y110.963 E1.25772
G1 X108.946 Y110.781 E1.26228
G1 X109.185 Y110.378 E1.27315
G1 X109.305 Y110.222 E1.27770
G1 X109.636 Y109.891 E1.28857
G1 X109.792 Y109.771 E1.29312
G1 X110.196 Y109.532 E1.30400
G1 X110.377 Y109.457 E1.30855
G1 X110.827 Y109.326 E1.31943
G1 X111.022 Y109.301 E1.32398
G1 X111.491 Y109.286 E1.33485
G1 X112.143 Y109.414 E1.35027
G1 X112.743 Y109.702 E1.36569
G1 X113.189 Y110.078 E1.37921
G1 X112.849 Y110.507 F7800.000
G1 X113.150 Y110.936 F540.000 E1.39138
G1 X113.199 Y111.054 E1.39435
G1 X113.334 Y111.428 E1.40356
G1 X113.388 Y111.951 E1.41574
G1 X113.309 Y112.470 E1.42793
G1 X113.260 Y112.589 E1.43089
G1 X113.102 Y112.953 E1.44011
G1 X112.782 Y113.367 E1.45225
G1 X112.368 Y113.688 E1.46439
G1 X112.003 Y113.846 E1.47361
G1 X111.884 Y113.895 E1.47657
G1 X111.365 Y113.974 E1.48875
G1 X110.843 Y113.919 E1.50094
G1 X110.469 Y113.785 E1.51015
G1 X110.351 Y113.736 E1.51311
G1 X109.921 Y113.435 E1.52528
G1 X109.580 Y113.035 E1.53745
G1 X109.400 Y112.681 E1.54667
G1 X109.351 Y112.563 E1.54963
G1 X109.248 Y112.049 E1.56179
G1 X109.277 Y111.526 E1.57395
G1 X109.388 Y111.144 E1.58316
G1 X109.436 Y111.026 E1.58612
G1 X109.716 Y110.583 E1.59828
G1 X109.997 Y110.302 E1.60749
G1 X110.440 Y110.022 E1.61964
G1 X110.940 Y109.863 E1.63180
G1 X111.066 Y109.846 E1.63476
G1 X111.463 Y109.833 E1.64397
G1 X111.978 Y109.937 E1.65613
G1 X112.450 Y110.166 E1.66830
G1 X112.788 Y110.452 E1.67857
G1 X112.448 Y110.881 F7800.000
G1 X112.689 Y111.252 F540.000 E1.68882
G1 X112.800 Y111.558 E1.69638
G1 X112.838 Y111.941 E1.70529
G1 X112.757 Y112.375 E1.71555
G1 X112.627 Y112.674 E1.72310
G1 X112.392 Y112.978 E1.73201
G1 X112.089 Y113.213 E1.74091
G1 X111.790 Y113.343 E1.74847
G1 X111.355 Y113.424 E1.75872
G1 X110.972 Y113.385 E1.76764
G1 X110.666 Y113.275 E1.77519
G1 X110.295 Y113.034 E1.78544
G1 X110.044 Y112.743 E1.79436
G1 X109.896 Y112.452 E1.80191
G1 X109.795 Y112.022 E1.81216
G1 X109.813 Y111.638 E1.82107
G1 X109.904 Y111.325 E1.82863
G1 X110.128 Y110.944 E1.83888
G1 X110.358 Y110.714 E1.84643
G1 X110.685 Y110.512 E1.85534
G1 X111.111 Y110.391 E1.86560
G1 X111.436 Y110.381 E1.87315
G1 X111.812 Y110.460 E1.88206
G1 X112.157 Y110.630 E1.89097
G1 X112.386 Y110.827 E1.89799
G1 X112.286 Y111.293 F7800.000
G1 F1800.000 E0.89799
G92 E0
G1 X89.129 Y89.715 F7800.000
G1 F1800.000 E1.00000
G1 X88.605 Y90.121 F540.000 E1.01537
G1 X88.174 Y90.307 E1.02626
G1 X87.992 Y90.383 E1.03082
G1 X87.334 Y90.482 E1.04627
G1 X86.671 Y90.412 E1.06171
G1 X86.230 Y90.253 E1.07259
G1 X86.048 Y90.178 E1.07715
G1 X85.504 Y89.794 E1.09258
G1 X85.075 Y89.286 E1.10800
G1 X84.862 Y88.869 E1.11887
G1 X84.786 Y88.687 E1.12343
G1 X84.659 Y88.035 E1.13885
G1 X84.673 Y87.566 E1.14972
G1 X84.699 Y87.371 E1.15427
G1 X84.830 Y86.921 E1.16515
G1 X84.905 Y86.740 E1.16970
G1 X85.143 Y86.336 E1.18057
G1 X85.263 Y86.180 E1.18512
G1 X85.595 Y85.849 E1.19599
G1 X85.750 Y85.729 E1.20055
G1 X86.154 Y85.491 E1.21142
G1 X86.335 Y85.415 E1.21597
G1 X86.786 Y85.285 E1.22685
G1 X86.980 Y85.259 E1.23140
G1 X87.449 Y85.244 E1.24227
G1 X88.101 Y85.372 E1.25769
G1 X88.283 Y85.447 E1.26225
G1 X88.701 Y85.660 E1.27312
G1 X89.209 Y86.090 E1.28855
G1 X89.592 Y86.634 E1.30397
G1 X89.667 Y86.816 E1.30853
G1 X89.826 Y87.257 E1.31941
G1 X89.896 Y87.919 E1.33485
G1 X89.797 Y88.578 E1.35030
G1 X89.535 Y89.191 E1.36575
G1 X89.180 Y89.650 E1.37922
G1 X88.740 Y89.326 F7800.000
G1 X88.326 Y89.646 F540.000 E1.39136
G1 X87.961 Y89.804 E1.40058
G1 X87.843 Y89.853 E1.40355
G1 X87.323 Y89.932 E1.41573
G1 X86.801 Y89.878 E1.42791
G1 X86.427 Y89.743 E1.43712
G1 X86.309 Y89.694 E1.44009
G1 X85.879 Y89.393 E1.45226
G1 X85.539 Y88.994 E1.46443
G1 X85.358 Y88.640 E1.47364
G1 X85.309 Y88.522 E1.47660
G1 X85.206 Y88.008 E1.48877
G1 X85.235 Y87.484 E1.50092
G1 X85.346 Y87.102 E1.51014
G1 X85.395 Y86.985 E1.51310
G1 X85.675 Y86.541 E1.52525
G1 X85.956 Y86.261 E1.53446
G1 X86.399 Y85.981 E1.54661
G1 X86.898 Y85.821 E1.55877
G1 X87.025 Y85.804 E1.56173
G1 X87.422 Y85.792 E1.57094
G1 X87.936 Y85.895 E1.58311
G1 X88.408 Y86.124 E1.59527
G1 X88.509 Y86.202 E1.59824
G1 X88.807 Y86.465 E1.60745
G1 X89.108 Y86.895 E1.61962
G1 X89.292 Y87.387 E1.63180
G1 X89.346 Y87.909 E1.64397
G1 X89.267 Y88.429 E1.65616
G1 X89.060 Y88.912 E1.66834
G1 X88.790 Y89.261 E1.67858
G1 X88.351 Y88.936 F7800.000
G1 X88.047 Y89.172 F540.000 E1.68749
G1 X87.748 Y89.301 E1.69504
G1 X87.313 Y89.382 E1.70529
G1 X86.931 Y89.344 E1.71421
G1 X86.624 Y89.233 E1.72176
G1 X86.254 Y88.992 E1.73202
G1 X86.003 Y88.701 E1.74093
G1 X85.855 Y88.411 E1.74848
G1 X85.753 Y87.980 E1.75874
G1 X85.771 Y87.596 E1.76765
G1 X85.862 Y87.284 E1.77520
G1 X86.086 Y86.902 E1.78546
G1 X86.317 Y86.672 E1.79301
G1 X86.644 Y86.471 E1.80191
G1 X87.011 Y86.357 E1.81082
G1 X87.395 Y86.339 E1.81973
G1 X87.771 Y86.418 E1.82865
G1 X88.162 Y86.624 E1.83890
G1 X88.406 Y86.840 E1.84645
G1 X88.625 Y87.156 E1.85537
G1 X88.766 Y87.575 E1.86562
G1 X88.796 Y87.899 E1.87317
G1 X88.738 Y88.279 E1.88209
G1 X88.586 Y88.633 E1.89101
G1 X88.401 Y88.872 E1.89802
G1 X87.984 Y88.822 F7800.000
G1 F1800.000 E0.89802
G92 E0
G1 X87.422 Y105.905 F7800.000
G1 F1800.000 E1.00000
G1 X87.689 Y105.940 F540.000 E1.00626
G1 X88.996 Y106.232 E1.03729
G1 X89.245 Y106.335 E1.04355
