; generated by Slic3r 0.9.10b on 2014-04-18 at 15:59:50

; layer_height = 0.35
; perimeters = 3
; top_solid_layers = 3
; bottom_solid_layers = 3
; fill_density = 0.4
; perimeter_speed = 30
; infill_speed = 60
; travel_speed = 130
; nozzle_diameter = 0.35
; filament_diameter = 3
; extrusion_multiplier = 1
; perimeters extrusion width = 0.37mm
; infill extrusion width = 0.37mm
; solid infill extrusion width = 0.37mm
; top infill extrusion width = 0.37mm
; first layer extrusion width = 0.60mm

G21 ; set units to millimeters
M107
M104 S200 ; set temperature
G28 ; home all axes
G1 Z5 F5000 ; lift nozzle
M109 S200 ; wait for temperature to be reached
G90 ; use absolute coordinates
G92 E0
M82 ; use absolute distances for extrusion
G1 F1800.000 E-1.00000
G92 E0
G1 Z0.300 F7800.000
G1 X139.564 Y8.914
G1 F1800.000 E1.00000
G1 X140.214 Y8.344 F540.000 E1.02005
G1 X141.454 Y7.394 E1.05627
G1 X142.164 Y6.924 E1.07601
G1 X142.934 Y6.544 E1.09592
G1 X144.384 Y5.944 E1.13231
G1 X145.034 Y5.714 E1.14830
G1 X145.824 Y5.534 E1.16708
G1 X147.624 Y5.294 E1.20919
G1 X148.444 Y5.244 E1.22824
G1 X149.274 Y5.304 E1.24754
G1 X150.824 Y5.504 E1.28378
G1 X151.674 Y5.664 E1.30383
G1 X152.484 Y5.944 E1.32370
G1 X153.934 Y6.544 E1.36009
G1 X154.704 Y6.924 E1.38000
G1 X155.414 Y7.394 E1.39975
G1 X156.654 Y8.344 E1.43597
G1 X157.304 Y8.914 E1.45601
G1 X194.074 Y45.684 E2.66179
G1 X194.644 Y46.334 E2.68184
G1 X195.594 Y47.574 E2.71806
G1 X196.064 Y48.284 E2.73780
G1 X196.444 Y49.054 E2.75772
G1 X197.044 Y50.504 E2.79410
G1 X197.314 Y51.314 E2.81390
G1 X197.484 Y52.144 E2.83355
G1 X197.674 Y53.584 E2.86723
G1 X197.744 Y54.404 E2.88631
G1 X197.694 Y55.424 E2.90999
G1 X197.484 Y56.984 E2.94649
G1 X197.314 Y57.824 E2.96636
G1 X197.034 Y58.634 E2.98623
G1 X196.434 Y60.074 E3.02241
G1 X196.064 Y60.824 E3.04180
G1 X195.604 Y61.514 E3.06103
G1 X194.654 Y62.764 E3.09743
G1 X194.074 Y63.434 E3.11798
G1 X60.434 Y197.074 E7.50037
G1 X59.764 Y197.654 E7.52092
G1 X58.514 Y198.604 E7.55732
G1 X57.824 Y199.064 E7.57655
G1 X57.074 Y199.434 E7.59595
G1 X55.634 Y200.034 E7.63212
G1 X54.824 Y200.314 E7.65199
G1 X53.984 Y200.484 E7.67186
G1 X52.424 Y200.694 E7.70836
G1 X51.554 Y200.754 E7.72858
G1 X50.674 Y200.694 E7.74904
G1 X49.124 Y200.484 E7.78531
G1 X48.294 Y200.314 E7.80495
G1 X47.504 Y200.044 E7.82431
G1 X46.054 Y199.444 E7.86070
G1 X45.284 Y199.064 E7.88061
G1 X44.574 Y198.594 E7.90035
G1 X43.334 Y197.644 E7.93657
G1 X42.684 Y197.074 E7.95662
G1 X5.914 Y160.304 E9.16240
G1 X5.344 Y159.654 E9.18245
G1 X4.394 Y158.414 E9.21867
G1 X3.924 Y157.704 E9.23841
G1 X3.544 Y156.934 E9.25832
G1 X2.944 Y155.484 E9.29471
G1 X2.664 Y154.674 E9.31458
G1 X2.504 Y153.824 E9.33464
G1 X2.304 Y152.274 E9.37088
G1 X2.244 Y151.434 E9.39040
G1 X2.304 Y150.594 E9.40993
G1 X2.504 Y149.044 E9.44617
G1 X2.664 Y148.194 E9.46622
G1 X2.944 Y147.384 E9.48610
G1 X3.544 Y145.934 E9.52248
G1 X3.924 Y145.164 E9.54240
G1 X4.394 Y144.454 E9.56214
G1 X5.344 Y143.214 E9.59836
G1 X5.914 Y142.564 E9.61841
G1 X139.506 Y8.972 E13.99922
G1 F1800.000 E12.99922
G92 E0
G1 X154.186 Y39.533 F7800.000
G1 F1800.000 E1.00000
G1 X154.408 Y39.441 F540.000 E1.00557
G1 X155.359 Y39.165 E1.02854
G1 X155.598 Y39.133 E1.03412
G1 X156.588 Y39.102 E1.05709
G1 X156.826 Y39.134 E1.06267
G1 X157.793 Y39.350 E1.08564
G1 X158.015 Y39.442 E1.09121
G1 X158.898 Y39.892 E1.11418
G1 X159.089 Y40.038 E1.11976
G1 X159.832 Y40.693 E1.14274
G1 X160.535 Y41.704 E1.17128
G1 X160.963 Y42.858 E1.19983
G1 X160.994 Y43.097 E1.20542
G1 X161.088 Y44.083 E1.22840
G1 X160.901 Y45.301 E1.25696
G1 X160.415 Y46.433 E1.28553
G1 X160.269 Y46.625 E1.29112
G1 X159.663 Y47.405 E1.31402
G1 X158.692 Y48.157 E1.34251
G1 X157.559 Y48.643 E1.37108
G1 X156.581 Y48.798 E1.39406
G1 X156.342 Y48.829 E1.39964
G1 X155.117 Y48.705 E1.42820
G1 X153.962 Y48.277 E1.45675
G1 X153.142 Y47.720 E1.47973
G1 X152.952 Y47.573 E1.48531
G1 X152.296 Y46.830 E1.50828
G1 X152.150 Y46.639 E1.51386
G1 X151.700 Y45.757 E1.53683
G1 X151.608 Y45.535 E1.54241
G1 X151.392 Y44.568 E1.56538
G1 X151.361 Y44.329 E1.57095
G1 X151.392 Y43.339 E1.59392
G1 X151.423 Y43.101 E1.59950
G1 X151.700 Y42.150 E1.62247
G1 X151.792 Y41.928 E1.62804
G1 X152.296 Y41.075 E1.65101
G1 X152.442 Y40.884 E1.65658
G1 X153.143 Y40.184 E1.67956
G1 X153.333 Y40.037 E1.68513
G1 X154.115 Y39.575 E1.70620
G1 X154.431 Y40.023 F7800.000
G1 X154.589 Y39.957 F540.000 E1.71018
G1 X155.472 Y39.701 E1.73149
G1 X155.642 Y39.679 E1.73547
G1 X156.561 Y39.650 E1.75678
G1 X156.731 Y39.672 E1.76076
G1 X157.628 Y39.873 E1.78207
G1 X158.605 Y40.356 E1.80735
G1 X158.741 Y40.460 E1.81133
G1 X159.431 Y41.068 E1.83264
G1 X160.052 Y41.964 E1.85793
G1 X160.429 Y42.988 E1.88323
G1 X160.451 Y43.158 E1.88721
G1 X160.538 Y44.073 E1.90852
G1 X160.372 Y45.152 E1.93383
G1 X159.941 Y46.154 E1.95913
G1 X159.836 Y46.291 E1.96312
G1 X159.274 Y47.016 E1.98439
G1 X158.413 Y47.682 E2.00964
G1 X157.410 Y48.113 E2.03495
G1 X156.502 Y48.257 E2.05626
G1 X156.332 Y48.280 E2.06025
G1 X155.246 Y48.171 E2.08554
G1 X154.223 Y47.794 E2.11084
G1 X153.463 Y47.277 E2.13215
G1 X153.326 Y47.172 E2.13613
G1 X152.614 Y46.347 E2.16142
G1 X152.131 Y45.369 E2.18670
G1 X151.931 Y44.472 E2.20801
G1 X151.908 Y44.302 E2.21199
G1 X151.937 Y43.384 E2.23330
G1 X151.959 Y43.213 E2.23728
G1 X152.216 Y42.331 E2.25859
G1 X152.281 Y42.172 E2.26257
G1 X152.749 Y41.381 E2.28388
G1 X152.854 Y41.245 E2.28786
G1 X153.504 Y40.595 E2.30917
G1 X153.640 Y40.491 E2.31315
G1 X154.360 Y40.065 E2.33256
G1 X154.676 Y40.513 F7800.000
G1 X155.584 Y40.237 F540.000 E2.35458
G1 X155.686 Y40.224 E2.35696
G1 X156.533 Y40.197 E2.37661
G1 X157.462 Y40.395 E2.39864
G1 X158.312 Y40.820 E2.42067
G1 X158.394 Y40.882 E2.42305
G1 X159.030 Y41.443 E2.44270
G1 X159.569 Y42.225 E2.46473
G1 X159.895 Y43.118 E2.48677
G1 X159.909 Y43.220 E2.48916
G1 X159.988 Y44.063 E2.50881
G1 X159.842 Y45.002 E2.53084
G1 X159.466 Y45.875 E2.55288
G1 X159.404 Y45.957 E2.55527
G1 X158.885 Y46.626 E2.57491
G1 X158.134 Y47.208 E2.59693
G1 X157.261 Y47.584 E2.61897
G1 X156.424 Y47.716 E2.63862
G1 X156.322 Y47.730 E2.64101
G1 X155.376 Y47.637 E2.66304
G1 X154.484 Y47.310 E2.68508
G1 X153.783 Y46.834 E2.70473
G1 X153.701 Y46.771 E2.70711
G1 X153.078 Y46.054 E2.72914
G1 X152.654 Y45.204 E2.75117
G1 X152.469 Y44.377 E2.77082
G1 X152.456 Y44.275 E2.77321
G1 X152.496 Y43.326 E2.79523
G1 X152.771 Y42.417 E2.81725
G1 X153.203 Y41.688 E2.83690
G1 X153.865 Y41.007 E2.85892
G1 X154.605 Y40.555 E2.87903
G1 X155.104 Y40.852 F7800.000
G1 F1800.000 E1.87903
G92 E0
G1 X115.096 Y85.770 F7800.000
G1 F1800.000 E1.00000
G1 X115.282 Y86.004 F540.000 E1.00694
G1 X116.422 Y87.591 E1.05224
G1 X117.324 Y89.655 E1.10449
G1 X117.759 Y91.866 E1.15673
G1 X117.759 Y92.165 E1.16368
G1 X117.706 Y94.119 E1.20898
G1 X117.168 Y96.307 E1.26123
G1 X116.169 Y98.327 E1.31349
G1 X114.761 Y100.082 E1.36567
G1 X113.015 Y101.485 E1.41760
G1 X111.009 Y102.481 E1.46954
G1 X108.836 Y103.024 E1.52148
G1 X108.543 Y103.034 E1.52827
G1 X106.597 Y103.087 E1.57341
G1 X104.397 Y102.668 E1.62535
G1 X102.338 Y101.787 E1.67728
G1 X100.516 Y100.484 E1.72921
G1 X99.017 Y98.821 E1.78114
G1 X97.909 Y96.874 E1.83307
G1 X97.245 Y94.735 E1.88500
G1 X97.056 Y92.504 E1.93693
G1 X97.350 Y90.284 E1.98885
G1 X98.114 Y88.179 E2.04078
G1 X99.312 Y86.287 E2.09270
G1 X99.511 Y86.073 E2.09949
G1 X100.887 Y84.696 E2.14463
G1 X102.768 Y83.481 E2.19655
G1 X104.866 Y82.697 E2.24847
G1 X107.083 Y82.383 E2.30039
G1 X109.315 Y82.551 E2.35231
G1 X111.460 Y83.195 E2.40423
G1 X111.721 Y83.326 E2.41101
G1 X113.416 Y84.284 E2.45615
G1 X113.644 Y84.467 E2.46294
G1 X115.035 Y85.715 E2.50626
G1 X114.697 Y86.146 F7800.000
G1 X115.950 Y87.871 F540.000 E2.55570
G1 X116.802 Y89.825 E2.60514
G1 X117.212 Y91.918 E2.65458
G1 X117.212 Y92.158 E2.66015
G1 X117.161 Y94.050 E2.70403
G1 X116.651 Y96.120 E2.75348
G1 X115.706 Y98.032 E2.80293
G1 X114.372 Y99.693 E2.85234
G1 X112.718 Y101.023 E2.90154
G1 X110.818 Y101.966 E2.95074
G1 X108.759 Y102.480 E2.99993
G1 X108.526 Y102.488 E3.00534
G1 X106.639 Y102.539 E3.04913
G1 X104.554 Y102.142 E3.09832
G1 X102.604 Y101.307 E3.14752
G1 X100.879 Y100.072 E3.19671
G1 X99.459 Y98.496 E3.24591
G1 X98.411 Y96.651 E3.29510
G1 X97.783 Y94.625 E3.34429
G1 X97.605 Y92.511 E3.39348
G1 X97.884 Y90.408 E3.44267
G1 X98.609 Y88.414 E3.49186
G1 X99.745 Y86.623 E3.54105
G1 X99.904 Y86.452 E3.54646
G1 X101.239 Y85.117 E3.59024
G1 X103.022 Y83.967 E3.63943
G1 X105.010 Y83.227 E3.68862
G1 X107.110 Y82.930 E3.73781
G1 X109.225 Y83.092 E3.78699
G1 X111.256 Y83.704 E3.83617
G1 X113.108 Y84.737 E3.88536
G1 X114.636 Y86.091 E3.93269
G1 X114.298 Y86.522 F7800.000
G1 X115.479 Y88.151 F378.000 E3.97933
G1 X116.281 Y89.995 E4.02597
G1 X116.666 Y91.970 E4.07262
G1 X116.666 Y92.151 E4.07681
G1 X116.617 Y93.981 E4.11927
G1 X116.134 Y95.934 E4.16592
G1 X115.242 Y97.737 E4.21256
G1 X113.983 Y99.305 E4.25920
G1 X112.422 Y100.560 E4.30566
G1 X110.627 Y101.451 E4.35211
G1 X108.683 Y101.936 E4.39857
G1 X108.509 Y101.942 E4.40261
G1 X106.680 Y101.992 E4.44503
G1 X104.712 Y101.616 E4.49149
G1 X102.871 Y100.826 E4.53794
G1 X101.242 Y99.660 E4.58440
G1 X99.902 Y98.171 E4.63086
G1 X98.912 Y96.428 E4.67731
G1 X98.320 Y94.514 E4.72377
G1 X98.153 Y92.518 E4.77022
G1 X98.419 Y90.532 E4.81668
G1 X99.105 Y88.650 E4.86313
G1 X100.179 Y86.959 E4.90959
G1 X100.297 Y86.831 E4.91362
G1 X101.591 Y85.538 E4.95604
G1 X103.275 Y84.453 E5.00250
G1 X105.153 Y83.756 E5.04895
G1 X107.137 Y83.478 E5.09540
G1 X109.135 Y83.633 E5.14185
G1 X111.052 Y84.213 E5.18831
G1 X112.800 Y85.191 E5.23476
G1 X114.237 Y86.467 E5.27932
G1 X114.112 Y87.036 F7800.000
G1 F1800.000 E4.27932
G92 E0
G1 X93.882 Y106.983 F7800.000
G1 F1800.000 E1.00000
G1 X94.069 Y107.217 F540.000 E1.00694
G1 X95.209 Y108.804 E1.05225
G1 X96.111 Y110.868 E1.10449
G1 X96.546 Y113.079 E1.15673
G1 X96.546 Y113.379 E1.16368
G1 X96.493 Y115.332 E1.20898
G1 X95.954 Y117.520 E1.26123
G1 X94.956 Y119.540 E1.31349
G1 X93.547 Y121.295 E1.36567
G1 X91.802 Y122.699 E1.41761
G1 X89.796 Y123.695 E1.46954
G1 X87.623 Y124.237 E1.52148
G1 X87.330 Y124.247 E1.52827
G1 X85.384 Y124.300 E1.57341
G1 X83.184 Y123.881 E1.62535
G1 X81.125 Y123.000 E1.67728
G1 X79.303 Y121.697 E1.72921
G1 X77.803 Y120.034 E1.78114
G1 X76.696 Y118.087 E1.83307
G1 X76.032 Y115.948 E1.88500
G1 X75.843 Y113.717 E1.93693
G1 X76.137 Y111.497 E1.98885
G1 X76.901 Y109.392 E2.04078
G1 X78.098 Y107.500 E2.09270
G1 X78.298 Y107.286 E2.09949
G1 X79.674 Y105.909 E2.14463
G1 X81.555 Y104.694 E2.19655
G1 X83.653 Y103.911 E2.24847
G1 X85.870 Y103.596 E2.30039
G1 X88.102 Y103.764 E2.35231
G1 X90.247 Y104.408 E2.40423
G1 X90.508 Y104.539 E2.41101
G1 X92.203 Y105.497 E2.45615
G1 X92.431 Y105.681 E2.46294
G1 X93.821 Y106.928 E2.50626
G1 X93.484 Y107.359 F7800.000
G1 X94.737 Y109.084 F540.000 E2.55570
G1 X95.589 Y111.038 E2.60514
G1 X95.999 Y113.131 E2.65458
G1 X95.999 Y113.371 E2.66015
G1 X95.948 Y115.263 E2.70403
G1 X95.438 Y117.334 E2.75348
G1 X94.493 Y119.245 E2.80294
G1 X93.159 Y120.907 E2.85234
G1 X91.505 Y122.236 E2.90154
G1 X89.605 Y123.180 E2.95074
G1 X87.546 Y123.693 E2.99993
G1 X87.313 Y123.701 E3.00534
G1 X85.425 Y123.752 E3.04913
G1 X83.341 Y123.355 E3.09832
G1 X81.391 Y122.520 E3.14752
G1 X79.666 Y121.285 E3.19671
G1 X78.246 Y119.709 E3.24591
G1 X77.197 Y117.864 E3.29510
G1 X76.570 Y115.838 E3.34429
G1 X76.391 Y113.724 E3.39348
G1 X76.671 Y111.621 E3.44267
G1 X77.396 Y109.627 E3.49186
G1 X78.532 Y107.836 E3.54105
G1 X78.691 Y107.665 E3.54646
G1 X80.026 Y106.330 E3.59025
G1 X81.809 Y105.180 E3.63943
G1 X83.796 Y104.440 E3.68862
G1 X85.897 Y104.143 E3.73781
G1 X88.012 Y104.305 E3.78699
G1 X90.043 Y104.917 E3.83618
G1 X91.895 Y105.951 E3.88536
G1 X93.423 Y107.304 E3.93269
G1 X93.085 Y107.735 F7800.000
G1 X94.266 Y109.364 F378.000 E3.97933
G1 X95.068 Y111.209 E4.02598
G1 X95.453 Y113.183 E4.07262
G1 X95.453 Y113.364 E4.07681
G1 X95.403 Y115.194 E4.11927
G1 X94.921 Y117.147 E4.16592
G1 X94.029 Y118.950 E4.21256
G1 X92.770 Y120.518 E4.25920
G1 X91.208 Y121.774 E4.30566
G1 X89.414 Y122.664 E4.35211
G1 X87.470 Y123.149 E4.39857
G1 X87.296 Y123.155 E4.40261
G1 X85.467 Y123.205 E4.44503
G1 X83.499 Y122.829 E4.49149
G1 X81.657 Y122.040 E4.53794
G1 X80.029 Y120.873 E4.58440
G1 X78.688 Y119.384 E4.63086
G1 X77.699 Y117.642 E4.67731
G1 X77.107 Y115.728 E4.72377
G1 X76.940 Y113.731 E4.77022
G1 X77.206 Y111.745 E4.81668
G1 X77.892 Y109.863 E4.86313
G1 X78.966 Y108.172 E4.90959
G1 X79.084 Y108.045 E4.91362
G1 X80.378 Y106.751 E4.95604
G1 X82.062 Y105.666 E5.00250
G1 X83.940 Y104.969 E5.04895
G1 X85.924 Y104.691 E5.09540
G1 X87.921 Y104.846 E5.14185
G1 X89.839 Y105.426 E5.18831
G1 X91.587 Y106.404 E5.23476
G1 X93.024 Y107.681 E5.27932
G1 X92.899 Y108.249 F7800.000
G1 F1800.000 E4.27932
G92 E0
G1 X40.443 Y146.579 F7800.000
G1 F1800.000 E1.00000
G1 X41.358 Y147.926 F540.000 E1.03776
G1 X42.022 Y149.730 E1.08234
G1 X42.214 Y151.644 E1.12694
G1 X41.921 Y153.544 E1.17153
G1 X41.161 Y155.312 E1.21613
G1 X40.982 Y155.545 E1.22297
G1 X39.986 Y156.830 E1.26066
G1 X38.467 Y158.005 E1.30518
G1 X36.700 Y158.765 E1.34978
G1 X35.092 Y159.020 E1.38755
G1 X34.799 Y159.058 E1.39438
G1 X32.886 Y158.867 E1.43897
G1 X31.082 Y158.202 E1.48356
G1 X29.735 Y157.287 E1.52132
G1 X29.501 Y157.108 E1.52815
G1 X28.424 Y155.886 E1.56590
G1 X28.245 Y155.653 E1.57273
G1 X27.506 Y154.202 E1.61049
G1 X27.393 Y153.930 E1.61731
G1 X27.038 Y152.341 E1.65507
G1 X27.000 Y152.049 E1.66189
G1 X27.051 Y150.422 E1.69965
G1 X27.089 Y150.130 E1.70647
G1 X27.543 Y148.566 E1.74423
G1 X27.656 Y148.294 E1.75105
G1 X28.485 Y146.893 E1.78881
G1 X28.664 Y146.659 E1.79563
G1 X29.815 Y145.508 E1.83338
G1 X30.049 Y145.329 E1.84021
G1 X31.450 Y144.500 E1.87796
G1 X31.722 Y144.388 E1.88478
G1 X33.286 Y143.933 E1.92254
G1 X33.577 Y143.895 E1.92936
G1 X35.205 Y143.844 E1.96712
G1 X35.497 Y143.882 E1.97394
G1 X37.086 Y144.237 E2.01170
G1 X37.358 Y144.350 E2.01852
G1 X38.808 Y145.089 E2.05628
G1 X39.042 Y145.268 E2.06311
G1 X40.264 Y146.345 E2.10087
G1 X40.393 Y146.514 E2.10579
G1 X40.000 Y146.899 F7800.000
G1 X40.875 Y148.187 F540.000 E2.14189
G1 X41.488 Y149.860 E2.18322
G1 X41.664 Y151.634 E2.22455
G1 X41.391 Y153.395 E2.26588
G1 X40.687 Y155.033 E2.30722
G1 X40.549 Y155.212 E2.31245
G1 X39.596 Y156.440 E2.34851
G1 X38.188 Y157.531 E2.38980
G1 X36.551 Y158.236 E2.43114
G1 X35.013 Y158.479 E2.46724
G1 X34.789 Y158.509 E2.47247
G1 X33.016 Y158.333 E2.51380
G1 X31.342 Y157.719 E2.55513
G1 X30.055 Y156.844 E2.59122
G1 X29.876 Y156.707 E2.59646
G1 X28.846 Y155.539 E2.63255
G1 X28.709 Y155.360 E2.63778
G1 X28.002 Y153.973 E2.67388
G1 X27.916 Y153.765 E2.67911
G1 X27.577 Y152.245 E2.71520
G1 X27.547 Y152.022 E2.72043
G1 X27.596 Y150.466 E2.75653
G1 X27.625 Y150.242 E2.76176
G1 X28.060 Y148.748 E2.79785
G1 X28.146 Y148.539 E2.80308
G1 X28.938 Y147.199 E2.83917
G1 X29.076 Y147.020 E2.84440
G1 X30.176 Y145.920 E2.88050
G1 X30.355 Y145.783 E2.88572
G1 X31.695 Y144.990 E2.92182
G1 X31.903 Y144.904 E2.92705
G1 X33.398 Y144.470 E2.96314
G1 X33.622 Y144.440 E2.96837
G1 X35.178 Y144.391 E3.00446
G1 X35.401 Y144.421 E3.00969
G1 X36.920 Y144.760 E3.04579
G1 X37.129 Y144.847 E3.05102
G1 X38.516 Y145.553 E3.08712
G1 X38.695 Y145.691 E3.09235
G1 X39.862 Y146.720 E3.12844
G1 X39.950 Y146.834 E3.13177
G1 X39.557 Y147.219 F7800.000
G1 X40.391 Y148.447 F540.000 E3.16621
G1 X40.954 Y149.990 E3.20427
G1 X41.115 Y151.623 E3.24234
G1 X41.094 Y151.779 E3.24598
G1 X40.862 Y153.246 E3.28042
G1 X40.212 Y154.754 E3.31849
G1 X39.207 Y156.051 E3.35655
G1 X38.034 Y156.961 E3.39097
G1 X37.909 Y157.056 E3.39460
G1 X36.402 Y157.706 E3.43267
G1 X34.779 Y157.959 E3.47075
G1 X33.145 Y157.799 E3.50882
